X: 23
T: Mount your Baggage
%R: minuet, triple hornpipe
B: "Scots Reel & Country Dances for the Year 1769", R.Bremner, ed. p.109 #2
F: http://digital.nls.uk/special-collections-of-printed-music/pageturner.cfm?id=104993891
Z: 2016 John Chambers <jc:trillian.mit.edu>
M: 3/2
L: 1/8
K: F
% - - - - - - - - - - - - - - - - - - - - - - - - - - - - -
V: 1
c2 |\
F3A c4 F2c2 | dcBA B2G2- G2A2 |\
F2A2 c4 A3f | Te3d c2 A4 :|\
fg |\
(agfe) f4 F2c2 | (dcBA) B2 G4 fg |
(agfe) f4 A2c2 | d2f2 Tc2 A4 fg |\
(agfe) f4 F2c2 | (dcBA) B2 G4 A2 |\
F3A c4 f3g | Te3d c2 A4 |]
% - - - - - - - - - - - - - - - - - - - - - - - - - - - - -
V: 2 clef=bass middle=d
z2 |\
f4 f4 f4 | f4 c4 c4 |\
f4 f4 f4 | c4 F4 F2 :|\
z2 |\
f4 f4 f4 | f4 c4 c4 |]
f4 f4 f4 | f4 f4 f4 |\
f4 f4 f4 | f4 c4 c4 |
f4 f4 f4 | c4 F4 F2 |]
% - - - - - - - - - - Dance description - - - - - - - - - -
%%begintext align
%% Hands across .|
%% back again :|
%% cross over one Couple .|.
%% right and left at Top :|:
%%endtext
%%sep 2 2 400


